X:1
T:Blendon, 88.87
T:Blendon, 88.87
T:Felice de Giardini (1716-1796)
T:Public Domain Courtesy of the Cyber Hymnal™
C:Felice de Giardini (1716-1796)
Z:Public Domain
Z:Courtesy of the Cyber Hymnal™
%%score ( 1 2 ) ( 3 4 )
L:1/8
M:3/4
K:D
V:1 treble 
V:2 treble 
V:3 bass 
V:4 bass 
V:1
 [Fd]2 [DF]2 [CG]2 | [DA]4 [FA]2 | (d2 c2) [DB]2 | [DA]4 [DA]2 | [DB]4 (dB) | [DA]4 [CG]2 | %6
 [DF]2 [A,E]2 [B,D]2 | [CA]6 | [EA]2 [EA]2 [EA]2 | (B2 A2) [Ee]2 | [^Ge]4 [Ed]2 | [DF]4 [DG]2 | %12
 (A3 G) [DF]2 | [EG]2 [DF]2 [CE]2 | D4 |] %15
V:2
 x6 | x6 | D4 x2 | x6 | x4 D2 | x6 | x6 | x6 | x6 | E4 x2 | x6 | x6 | E4 x2 | x6 | D4 |] %15
V:3
 [D,A,]2 [D,A,]2 [E,A,]2 | [F,A,]4 [D,D]2 | (B,2 A,2) [D,G,]2 | [D,F,]4 [F,D]2 | [G,D]4 (B,D) | %5
 [F,D]4 [E,A,]2 | [D,A,]2 [C,E,]2 [B,,F,]2 | [A,,A,]6 | [A,,C]2 [A,,C]2 [A,,C]2 | (D2 C2) [A,,C]2 | %10
 [E,B,]4 [E,^G,]2 | [D,A,]4 [B,,D]2 | (C2 E2) [B,,D]2 | [G,,B,]2 [A,,A,]2 [A,,G,]2 | [D,F,]4 |] %15
V:4
 x6 | x6 | D,4 x2 | x6 | x4 G,2 | x6 | x6 | x6 | x6 | A,,4 x2 | x6 | x6 | A,,4 x2 | x6 | x4 |] %15

